X: 1
T: Mouth of the Tobique #2
S: Roaring Jelly collection
C: French Canadian
M: C|
R: reel
K: G
(3DEF | "G"GFGA Bded | BdBG DGBG | "D7"AGEF DFAc |1 "G"BdBG D2 :|2 "G"BG2G G2_B2 :|
|: ef | "G"gfga gfeg | "D"fdAd fagf | "C"ecAF "D"DFAc |1,3 "G"BGBc d2ef :|2,4 "G"BG2G G2 :|
P: Alternate A parts:
|: (3DEF | "G"GFGA Bded | BdBG DGBG | "D7"AGEF DFAc |1,3 "G"BdBG D2 :|2,4 "G"BG2G G2_B2 :|
|: "G"=BGBG GcGG | GBGG BGBG | "D7"AGFE DFAc |1,3 "G"BdBG D2_B2 :|2,4 "G"BG2G G2 :|
